assets/img/icons/arrow-right--white.svg

<?xml version="1.0" encoding="UTF-8"?>
<svg width="6px" height="8px" viewBox="665 531 6 8" version="1.1" xmlns="http://www.w3.org/2000/svg"
     xmlns:xlink="http://www.w3.org/1999/xlink">
    <path d="M669.941964,535.058036 L666.629464,538.370536 C666.572916,538.427084 666.505953,538.455357 666.428571,538.455357 C666.35119,538.455357 666.284226,538.427084 666.227679,538.370536 L665.486607,537.629464 C665.430059,537.572916 665.401786,537.505953 665.401786,537.428571 C665.401786,537.35119 665.430059,537.284226 665.486607,537.227679 L667.857143,534.857143 L665.486607,532.486607 C665.430059,532.430059 665.401786,532.363096 665.401786,532.285714 C665.401786,532.208333 665.430059,532.141369 665.486607,532.084821 L666.227679,531.34375 C666.284226,531.287202 666.35119,531.258929 666.428571,531.258929 C666.505953,531.258929 666.572916,531.287202 666.629464,531.34375 L669.941964,534.65625 C669.998512,534.712798 670.026786,534.779762 670.026786,534.857143 C670.026786,534.934524 669.998512,535.001488 669.941964,535.058036 L669.941964,535.058036 Z"
          stroke="none" fill-opacity="0.738337862" fill="#ffffff" fill-rule="evenodd"></path>
</svg>

<?xml version="1.0" encoding="UTF-8"?><svg width="6" height="8" viewBox="665 531 6 8" xmlns="http://www.w3.org/2000/svg"><path d="M669.942 535.058l-3.313 3.313a.275.275 0 0 1-.2.084.275.275 0 0 1-.201-.084l-.741-.742a.275.275 0 0 1-.085-.2c0-.078.028-.145.085-.201l2.37-2.37-2.37-2.371a.275.275 0 0 1-.085-.201c0-.078.028-.145.085-.201l.74-.741a.275.275 0 0 1 .202-.085c.077 0 .144.028.2.085l3.313 3.312a.275.275 0 0 1 .085.201.275.275 0 0 1-.085.201z" fill-opacity=".738" fill="#fff" fill-rule="evenodd"/></svg>
